X:49
T:Pull Out the Knife and Stick It In Again
T:Pull the Knife and Stick It Again
R:jig
H:Related to "Castle Kelly", reel#118
D:Matt Molloy
D:Stockton's Wing
Z:id:hn-jig-49
M:6/8
K:Edor
~E3 GFE|DB,E DB,D|~E3 GFE|ABG AFD|
~E3 GFE|DB,E DEF|G2E FED|1 B,ED E2D:|2 B,ED E2e||
|:edB BAF|EDB, ~D3|edB BAF|ABc def|
edB BAF|EDB, DEF|G2E FED|1 B,ED E2e:|2 B,ED E2D||
<end>
<start>
